X:143
T: KENNT IHR NICHT DEN HERRN VON FALKENSTEIN
N: Z0142
O: Europa, Mitteleuropa, Deutschland, Rheinland
R: Erzaehlung, lustige Romanze
M: 2/4
L: 1/16
K: Bb
BB | dcBAB2F2 | D2F2B2
BB | dcBAB2F2 | D2F2B2
BB | c2c2c2d2 | e2dcd2
BB | dcBAB2F2 | D2F2B2
B2 | dcBAB2F2 | D2F2B2
B2 | c2c2c2d2 | e2dcd2
BB | dcBAB2BB | dcBAB2
BB | dcBAB2BB | dcBAB2
B2 | ccccc2cc | c2c2c2d2 | e2dcd2

